modules/feathericon/icons/coffee.svg

<svg width="12" height="10" xmlns="http://www.w3.org/2000/svg"><path d="M10 0v1h1s1 0 1 2.5S11 6 11 6h-1c0 1-1.003 2-2 2H1.997C1 8 0 7 0 5.994V0h10zM0 9h12v1H0V9z" fill="#000" fill-rule="evenodd"/></svg>

<?xml version="1.0" encoding="UTF-8"?>
<svg width="12px" height="10px" viewBox="0 0 12 10" version="1.1" xmlns="http://www.w3.org/2000/svg" xmlns:xlink="http://www.w3.org/1999/xlink">
    <!-- Generator: sketchtool 48.1 (47250) - http://www.bohemiancoding.com/sketch -->
    <title>coffee</title>
    <desc>Created with sketchtool.</desc>
    <defs></defs>
    <g id="food" stroke="none" stroke-width="1" fill="none" fill-rule="evenodd">
        <g id="coffee" fill="#000000">
            <path d="M10,-4.4408921e-16 L10,1 L11,1 C11,1 12,1 12,3.5 C12,6 11,6 11,6 L10,6 C9.99999994,7 8.9973917,8 8,8 L1.9973917,8 C1,8 0,7 0,5.99408095 L0,-4.4408921e-16 L10,-4.4408921e-16 Z M0,9 L12,9 L12,10 L0,10 L0,9 Z" id="Shape"></path>
        </g>
    </g>
</svg>
